X:1
T:Zwölf Gesänge, Op.3
T:Duettino
T:Zwölf Gesänge, Op.3
T:12. Duettino
T:Louise Reichardt
T:Aus dem Singspiel "Die Musikanten" von Clemens Brentano
T:OpenScore (CC0)
T:OpenScore (CC0)
T:OpenScore (CC0)
C:Louise Reichardt
Z:Clemens Brentano
Z:OpenScore (CC0)
%%score 1 2 { ( 3 6 ) | ( 4 5 ) }
L:1/8
Q:1/4=100
M:6/8
K:A
V:1 treble nm="Knabe"
V:2 treble nm="Blinder"
V:3 treble nm="Piano"
V:6 treble 
V:4 bass 
V:5 bass 
V:1
"^Sanft" A2 B | c2 d B2 c | A2 E A2 B | c2 A E2 E | (EF) E z z2 | z6 | z6 | z6 | %8
w: Hör es|klagt die Flö- te|wie- der und die|küh- len Brun- nen|rau- * schen,||||
 B2 B (B/c/^d/e/f/) d/ | (e/g/f/e/^d/) c/ B2 B | B2 B (B/c/^d/e/) (f/d/) | %11
w: Hör es klagt * * * * die|Flö- * * * * te wie- der|und die küh- * * * len *|
 (e/g/f/e/) (^d/c/) B2 A | G2 G (F>B) B | G2 G (F>B) B | (EF) G (BA) G | (FE) F E2 z | z6 | z6 | %18
w: Brun- * * * nen * rau- schen,|hol- des Bit- * ten|mild Ver- lan- * gen|wie * es süss * zum|Her- * zen spricht!|||
 z2 z (Bc) ^d | (e>B) B (fe/^d/) (c/B/) | (B>e) e (fe/^d/) (c/B/) | B3/2 e/ F/ c/ B3/2 G/ A/ F/ | %22
w: hol- * des|Bit- * ten hol- * * des *|Bit- * ten mild * * Ver- *|lan- gen wie es süss zum Her- zen|
 E3 z2 z | z6 | z6 | z2 z A2 B | c2 d B2 c | A2 E A2 B | c2 A E2 E | (EF) E A2 B | c2 d B2 c | %31
w: spricht.|||Hör es|klagt die Flö- te|wie- der und die|küh- len Brun- nen|rau- * schen, hol- der|wehn die Tö- ne|
 A2 E E E z | F E z (E>F) G | B A z z2 z | z6 | z2 z |] %36
w: nie- der stil- le,|stil- le, lass * uns|lau- schen.|||
V:2
 z2 z | z6 | z6 | z6 | z2 z A2 B | (c/e/^d/e/=d/) c/ (B/d/c/d/c/) B/ | A2 E E E z | F E z A2 A | %8
w: ||||Hol- der|wehn * * * * die Tö- * * * * ne|nie- der stil- le,|stil- le, lass uns|
 G2 G z2 z | G2 G A2 A | G2 G A2 A | G2 G z z2 | z6 | z6 | z6 | z2 z G2 G | F2 B B2 B | B2 A A2 B | %18
w: lau- schen|Hol- der wehn die|Tö- ne nie- der|stil- le||||durch die|Nacht die mich um-|fan- gen blick zu|
 G2 G F2 F | G2 z z2 z | z6 | z6 | z6 | z6 | z6 | z2 z C2 D | E2 F D2 E | C2 E C2 D | E2 C D2 D | %29
w: mir der Tö- ne|Licht.||||||Hör es|klagt die Flö- te|wie- der und die|küh- len Brun- nen|
 C2 C C2 D | E2 F D2 E | C2 C D D z | C C z D2 D | D C z z2 z | z6 | z2 z |] %36
w: rau- schen, hol- der|wehn die Tö- ne|nie- der stil- le,|stil- le, lass uns|lau- schen.|||
V:3
!p! [CA]2 [DB] | [Ec]2 [Fd] [DB]2 [Ec] | [CA]2 E [CA]2 [DB] | [Ec]2 [CA] [B,DE]2 [B,DE] | %4
 [CE]2 [CE] [CA]2 [DB] | [Ec]2 [Fd] [DB]2 [Ec] | [CA]2 E [B,DE]2 [B,DE] | %7
 [CE]2 [CE] [B,^DA]2 [B,DA] | [B,EG]2 [B,EG] [B,^DA]2 [B,DA] | [B,EG]2 [B,EG] [B,^DA]2 [B,DA] | %10
 [B,EG]2 [B,EG] [B,^DA]2 [B,DA] | [B,EG]2 [B,EG] [B,^DA]2 [B,DA] | [B,EG]2 [B,EG] [B,^DF]2 [B,DF] | %13
 [B,EG]2 [B,EG] [B,^DF]2 [B,DF] | E2 E [^DF]2 E | [^DF]2 [DF] [B,EG]2 [B,EG] | %16
 [B,^DF]2 [B,DF] [B,=DEG]2 [B,DEG] | [CEA]2 [CEA] [B,^DA]2 [B,DA] | [B,EG]2 [B,EG] [^DF]2 [DF] | %19
 E2 [EGB] [^DFAB]2 [DFAB] | [EGB]2 [EGB] [^DFAB]2 [DFAB] | [EGB]2 [CFA] [B,EG]2 [A,^DF] | %22
 x3 fe/^d/c/B/ | (B2!f! e) (a/g/f/e/^d/c/) | (B>e) (F/c/) E2{G} [^DF] | %25
 E/!>(! (e/^d/e/=d/B/)!>)!!p! [CA]2 [DB] | [Ec]2 [Fd] [DB]2 [Ec] | [CA]2 E [CA]2 [DB] | %28
 [Ec]2 [CA] [B,DE]2 [B,DE] | [CE]2 [CE] [CA]2 [DB] | [Ec]2 [Fd] [DB]2 [Ec] | %31
 [CA]2 E [B,DE]2 [B,DE] | [CE]2 [CE] E>F[DG] | [CA]!p! ee (Te3{fg)} | a!pp!e'e' (Te'3{f'g')} | %35
 a'3 |] %36
V:4
 z2 z | [A,,A,]6 | [A,,A,]6 | [A,,A,]3 [G,,G,]2 [G,,G,] | [A,,A,]2 [A,,A,] [A,,A,]3 | %5
 [A,,A,]3 [A,,A,]3 | [A,,A,]3 [G,,G,]2 [G,,G,] | [A,,A,]2 [A,,A,] [B,,F,]2 [B,,F,] | %8
 [E,,E,]2 [E,,E,] [B,,F,]2 [B,,F,] | [E,,E,]2 [E,,E,] [B,,F,]2 [B,,F,] | %10
 [E,,E,]2 [E,,E,] [B,,F,]2 [B,,F,] | [E,,E,]2 [E,,E,] [B,,F,]2 [B,,F,] | %12
 [E,,E,]2 [E,,E,] [E,,E,]2 [E,,E,] | [E,,E,]2 [E,,E,] [E,,E,]2 [E,,E,] | %14
 [E,,E,]2 [E,,E,] [E,,E,]2 [E,,E,] | B,,2 B,, [E,,E,]2 [E,,E,] | %16
 [E,,E,]2 [E,,E,] [E,,E,]2 [E,,E,] | [E,,E,]2 [E,,E,] [B,,F,]2 [B,,F,] | %18
 [E,,E,]2 [E,,E,] B,,2 B,, | [E,,E,]2 [E,,E,] [E,,E,]2 [E,,E,] | %20
 [E,,E,]2 [E,,E,] [E,,E,]2 [E,,E,] | [E,,E,]2 [A,,,A,,] [B,,,B,,]2 [B,,,B,,] | %22
 [E,,E,]3"^dol." [E,B,]3 | [E,B,]3 (F/E/^D/C/B,/A,/) | G,2 A, [B,,,B,,]2 [B,,,B,,] | [E,,E,]3 A,3 | %26
 [A,,A,]6 | [A,,A,]6 | [A,,A,]3 [G,,G,]2 [G,,G,] | [A,,A,]2 [A,,A,] [A,,A,]2 [A,,A,] | [A,,A,]6 | %31
 [A,,A,]3 [G,,G,]2 [G,,G,] | [A,,A,]2 [A,,A,] [E,,E,]2 [E,,E,] | [A,,A,]3 [E,B,D]3 | %34
 [A,C]3[K:treble] [EBd]3 | [Ac]3 |] %36
V:5
 x3 | x6 | x6 | x6 | x6 | x6 | x6 | x6 | x6 | x6 | x6 | x6 | x6 | x6 | [G,B,]2 [G,B,] A,2 [G,B,] | %15
 A,2 A, x x2 | x6 | x6 | x3 [A,B,]2 [A,B,] | [G,B,]2 x4 | x6 | x6 | [G,B,]3 x3 | x6 | %24
 x3 [G,B,]2 A, | G,/ x/ x x4 | x6 | x6 | x6 | x6 | x6 | x6 | x6 | x6 | x3[K:treble] x3 | x3 |] %36
V:6
 x3 | x6 | x6 | x6 | x6 | x6 | x6 | x6 | x6 | x6 | x6 | x6 | x6 | x6 | x6 | x6 | x6 | x6 | x6 | %19
 x6 | x6 | x6 | E3 [A^d] x2 | G3 x2 x | x6 | x6 | x6 | x6 | x6 | x6 | x6 | x6 | x3 D3 | x6 | x6 | %35
 x3 |] %36

